X:19007
T:Xiraldilla (CT 226)
R:Xiraldilla
C:Tradicional
S:Música Tradicional Asturiana, (C) Tello & Tito. Asturies, 2001.
S:http://pagina.de/MusTradAst <telloytito@asturies.org>
N:Xiraldilla, dictada por Alfredo García Muñiz, de diez y ocho años, de Llanuces, ayuntamiento de Quirós.
O:Llanuces (Quirós)
A:Asturies
Z:Cancioneru de Torner 226
M:3/8
L:1/8
Q:3/8=80
W:Siempre que te vas me dices adios,
W:hasta la primera;
W:no me dices hasta cuándo,
W:siempre me dejas con pena.
K:G
B/c/
|d2 c|d2 B|AGF/G/|A2 B|c2 B|AGB/c/|
d2 c|d2 B|AGF/G/|A2 B|c2 B|AG z||


